X:1
T:Ewing Brooks
M:2/4
L:1/8
K:F
 A| CC FG| A3 A| cc BA| G3 G| BG EG| B B2 c| dc G^G| A3| A| CC FG|\
 A3 A| cc BA| G3 E/2E/2| CE GA| B3 c| dc BG| F3||
